X:14
T:Miss MacDowal Grant's Strathspey - of Arndilly
R:strathspey
C:William Marshall
S:1822 Collection p27
B:Athole
Z:Paul Stewart Cranford (P.S.C.), <http://www.cranfordpub.com>
L:1/8
Q:288
M:C
K:CAeo
g|G<Gc>d e2 e>g|fcdd e2 e>g|f>b g/f/e/d/ c2c:|
||g/a/|bcgc bcga|bgfb dBfd|b<cg<c b<cg>a|b>gfd c2 cg/a/|
b<cgc b<cg>a|b>gfd e2 eg|f>b g/f/e/d/ c2 c|]
